Newaita-dark/actions/scalable/align-horizontal-bottom-out.svg

<?xml version="1.0" encoding="UTF-8"?>
<svg xmlns="http://www.w3.org/2000/svg" xmlns:xlink="http://www.w3.org/1999/xlink" width="512pt" height="512pt" viewBox="0 0 512 512" version="1.1">
<g id="surface1">
<path style=" stroke:none;fill-rule:nonzero;fill:rgb(74.117649%,74.117649%,74.117649%);fill-opacity:1;" d="M 58.214844 242.148438 L 449.835938 242.148438 C 458.601562 242.148438 465.710938 249.257812 465.710938 258.023438 C 465.710938 266.792969 458.601562 273.902344 449.835938 273.902344 L 58.214844 273.902344 C 49.445312 273.902344 42.335938 266.792969 42.335938 258.023438 C 42.335938 249.257812 49.445312 242.148438 58.214844 242.148438 Z M 58.214844 242.148438 "/>
<path style=" stroke:none;fill-rule:nonzero;fill:rgb(74.117649%,74.117649%,74.117649%);fill-opacity:1;" d="M 74.089844 215.6875 C 56.5 215.6875 42.335938 201.527344 42.335938 183.933594 L 42.335938 56.921875 C 42.335938 39.332031 56.5 25.167969 74.089844 25.167969 L 179.933594 25.167969 C 197.523438 25.167969 211.6875 39.332031 211.6875 56.921875 L 211.6875 183.933594 C 211.6875 201.527344 197.523438 215.6875 179.933594 215.6875 Z M 84.675781 183.933594 L 169.347656 183.933594 C 175.214844 183.933594 179.933594 179.214844 179.933594 173.351562 L 179.933594 67.507812 C 179.933594 61.640625 175.214844 56.921875 169.347656 56.921875 L 84.675781 56.921875 C 78.8125 56.921875 74.089844 61.640625 74.089844 67.507812 L 74.089844 173.351562 C 74.089844 179.214844 78.8125 183.933594 84.675781 183.933594 Z M 84.675781 183.933594 "/>
<path style=" stroke:none;fill-rule:nonzero;fill:rgb(74.117649%,74.117649%,74.117649%);fill-opacity:1;" d="M 306.945312 215.6875 C 289.355469 215.6875 275.191406 201.527344 275.191406 183.933594 L 275.191406 78.089844 C 275.191406 60.5 289.355469 46.339844 306.945312 46.339844 L 412.789062 46.339844 C 430.378906 46.339844 444.542969 60.5 444.542969 78.089844 L 444.542969 183.933594 C 444.542969 201.527344 430.378906 215.6875 412.789062 215.6875 Z M 317.53125 183.933594 L 402.203125 183.933594 C 408.070312 183.933594 412.789062 179.214844 412.789062 173.351562 L 412.789062 88.675781 C 412.789062 82.8125 408.070312 78.089844 402.203125 78.089844 L 317.53125 78.089844 C 311.667969 78.089844 306.945312 82.8125 306.945312 88.675781 L 306.945312 173.351562 C 306.945312 179.214844 311.667969 183.933594 317.53125 183.933594 Z M 317.53125 183.933594 "/>
<path style=" stroke:none;fill-rule:nonzero;fill:rgb(100%,43.921569%,26.274511%);fill-opacity:0.988235;" d="M 296.363281 469.710938 C 278.769531 469.710938 264.609375 455.550781 264.609375 437.957031 L 264.609375 332.117188 C 264.609375 314.523438 278.769531 300.363281 296.363281 300.363281 L 423.375 300.363281 C 440.964844 300.363281 455.125 314.523438 455.125 332.117188 L 455.125 437.957031 C 455.125 455.550781 440.964844 469.710938 423.375 469.710938 Z M 306.945312 437.957031 L 412.789062 437.957031 C 418.652344 437.957031 423.375 433.238281 423.375 427.375 L 423.375 342.699219 C 423.375 336.835938 418.652344 332.117188 412.789062 332.117188 L 306.945312 332.117188 C 301.082031 332.117188 296.363281 336.835938 296.363281 342.699219 L 296.363281 427.375 C 296.363281 433.238281 301.082031 437.957031 306.945312 437.957031 Z M 306.945312 437.957031 "/>
</g>
</svg>

<svg xmlns="http://www.w3.org/2000/svg" width="512pt" height="512pt" viewBox="0 0 512 512"><path d="M58.215 242.148h391.62c8.767 0 15.876 7.11 15.876 15.875 0 8.77-7.11 15.88-15.875 15.88H58.215c-8.77 0-15.88-7.11-15.88-15.88 0-8.765 7.11-15.875 15.88-15.875zm0 0M74.09 215.688c-17.59 0-31.754-14.16-31.754-31.754V56.922c0-17.59 14.164-31.754 31.754-31.754h105.844c17.59 0 31.754 14.164 31.754 31.754v127.012c0 17.593-14.165 31.754-31.754 31.754zm10.586-31.754h84.672a10.559 10.559 0 0 0 10.586-10.582V67.508a10.56 10.56 0 0 0-10.586-10.586H84.676A10.562 10.562 0 0 0 74.09 67.508v105.844a10.561 10.561 0 0 0 10.586 10.582zm0 0M306.945 215.688c-17.59 0-31.754-14.16-31.754-31.754V78.09c0-17.59 14.164-31.75 31.754-31.75H412.79c17.59 0 31.754 14.16 31.754 31.75v105.844c0 17.593-14.164 31.754-31.754 31.754zm10.586-31.754h84.672a10.559 10.559 0 0 0 10.586-10.582V88.676a10.562 10.562 0 0 0-10.586-10.586h-84.672a10.564 10.564 0 0 0-10.586 10.586v84.676a10.561 10.561 0 0 0 10.586 10.582zm0 0" fill="#bdbdbd"/><path d="M296.363 469.71a31.682 31.682 0 0 1-31.754-31.753v-105.84a31.682 31.682 0 0 1 31.754-31.754h127.012c17.59 0 31.75 14.16 31.75 31.754v105.84c0 17.594-14.16 31.754-31.75 31.754zm10.582-31.753H412.79a10.561 10.561 0 0 0 10.586-10.582v-84.676a10.561 10.561 0 0 0-10.586-10.582H306.945a10.558 10.558 0 0 0-10.582 10.582v84.676a10.558 10.558 0 0 0 10.582 10.582zm0 0" fill="#ff7043" fill-opacity=".988"/></svg>
